X:15
T:Pinch of Snuff, The
M:C|
R:Reel
Z:Source unknown (Luisa)
K:D
"D"F2DF EFDE|F2DF "A7"EFGE|"D"F2DF EFDE|"G"GABG "A7"EFGE::\
"D"DFAF BFAF|DFAF "A7"EA,CE|"D"DFAF BFAF|"G"GABG "A7"EFGE::\
K:A
"A"c2Ac BcAB|c2Ac "E7"BcdB|"A"c2Ac BcAB|"D"defd "E7"BcdB::\
"A"Acec fcec|Acec "E7"BEGB|"A"Acec fcec|"D"defd "E7"BcdB\
K:D
:|\
K:D
"D"f2df efde|f2df "A7"efge|"D"f2df efde|"G"gabg "A7"efge::\
"D"dfaf bfaf|dfaf "A7"eAce|"D"dfaf bfaf|"G"gabg "A7"efge::\
"D"fgfe ~d3B|AF ~F2 AFD=c|"G"BGBd "C"~=c3G|EDCD EFGz:|
